src/catppuccin-mocha-lavender-cursors/draft_24.svg

<?xml version="1.0" encoding="UTF-8" standalone="no"?>
<svg
   id="svg12"
   width="24"
   height="24"
   version="1"
   sodipodi:docname="draft_24.svg"
   inkscape:version="1.1.2 (0a00cf5339, 2022-02-04)"
   xmlns:inkscape="http://www.inkscape.org/namespaces/inkscape"
   xmlns:sodipodi="http://sodipodi.sourceforge.net/DTD/sodipodi-0.dtd"
   xmlns="http://www.w3.org/2000/svg"
   xmlns:svg="http://www.w3.org/2000/svg">
  <sodipodi:namedview
     id="namedview11"
     pagecolor="#ffffff"
     bordercolor="#666666"
     borderopacity="1.0"
     inkscape:pageshadow="2"
     inkscape:pageopacity="0.0"
     inkscape:pagecheckerboard="0"
     showgrid="true"
     inkscape:zoom="30.14"
     inkscape:cx="7.3158593"
     inkscape:cy="10.683477"
     inkscape:window-width="1896"
     inkscape:window-height="1020"
     inkscape:window-x="9"
     inkscape:window-y="45"
     inkscape:window-maximized="1"
     inkscape:current-layer="svg12">
    <inkscape:grid
       type="xygrid"
       id="grid1279" />
  </sodipodi:namedview>
  <defs
     id="defs16">
    <filter
       id="filter848"
       style="color-interpolation-filters:sRGB"
       width="1.109"
       height="1.133"
       x="-0.059999999"
       y="-0.07">
      <feGaussianBlur
         id="feGaussianBlur850"
         stdDeviation=".5" />
    </filter>
    <filter
       id="filter822"
       style="color-interpolation-filters:sRGB"
       width="1.1309091"
       height="1.1599994"
       x="-0.065454543"
       y="-0.079999715">
      <feGaussianBlur
         id="feGaussianBlur824"
         stdDeviation=".6" />
    </filter>
    <filter
       inkscape:collect="always"
       style="color-interpolation-filters:sRGB"
       id="filter2071"
       x="-0.021076214"
       y="-0.02660483"
       width="1.0421524"
       height="1.0532097">
      <feGaussianBlur
         inkscape:collect="always"
         stdDeviation="0.155281"
         id="feGaussianBlur2073" />
    </filter>
  </defs>
  <path
     style="color:#000000;opacity:0.1;fill:#000000;fill-opacity:1;stroke-linecap:round;stroke-linejoin:round;-inkscape-stroke:none;filter:url(#filter2071)"
     d="m 17.564453,5.51523 c -0.317741,-5.139e-4 -0.668203,0.063904 -1.009766,0.2539062 -0.81678,0.4543214 -1.285331,1.2412877 -1.345703,2.0488282 -0.04253,0.5688492 0.09417,0.9629315 0.189454,1.2988281 -0.207594,-0.1814249 -0.372063,-0.313718 -0.683594,-0.6171875 -0.492199,-0.4794618 -1.116309,-1.0741305 -1.97461,-1.5 -0.876579,-0.4349387 -1.991691,-0.6347558 -3.1914059,-0.3613281 -0.019664,0.00397 -0.039204,0.00853 -0.058594,0.013672 C 8.3532976,6.9599936 7.7199109,7.9064507 7.3203125,8.7749956 7.0751363,9.307897 6.9805969,9.9114814 6.8515625,10.499604 H 5 4.5 c -0.5522619,5.5e-5 -0.9999448,0.447738 -1,1 v 1 c 5.52e-5,0.552262 0.4477381,0.999945 1,1 H 5 6.5 c -0.051782,1.513275 0.044494,3.032209 0.8007812,4.255859 0.0013,0.0013 0.0026,0.0026 0.00391,0.0039 l 0.00977,0.01563 0.00977,0.01563 c 0.012329,0.01998 0.025358,0.03953 0.039063,0.05859 0.6324468,0.871217 1.5699769,1.325985 2.4707032,1.53125 0.8980036,0.204645 1.8322016,0.187717 2.6972656,-0.04297 0.861851,-0.229824 1.777229,-0.70881 2.296875,-1.640625 0.552201,-0.990214 0.396554,-2.22997 -0.265638,-3.257811 -0.677839,-1.052154 -1.834359,-1.836856 -3.152344,-2.558594 -0.540641,-0.296059 -1.108319,-0.471544 -1.6699216,-0.675781 0.099305,-0.427881 0.1869876,-0.919955 0.3046876,-1.17578 0.204149,-0.4437269 0.487546,-0.5296464 0.228515,-0.4570314 0.509855,-0.1040468 0.780151,-0.057795 1.132813,0.1171875 0.355114,0.1761997 0.774077,0.5296739 1.216797,0.9609369 0.437919,0.426586 0.917915,0.965639 1.617187,1.386718 0.775624,0.467053 1.874148,0.648313 2.886719,0.138672 0.833046,-0.419283 1.344846,-1.187516 1.419922,-2.015624 0.03981,-0.4390908 -0.06475,-0.6926502 -0.138672,-0.9980466 0.0026,0.00233 0.04102,0.033203 0.04102,0.033203 l 0.365234,0.3417969 c 0.403355,0.3777304 1.036609,0.3567386 1.414063,-0.046875 l 0.683589,-0.7304687 c 0.37773,-0.4033547 0.356738,-1.0366087 -0.04687,-1.4140625 L 20.503906,7.0074175 20.5,7.0035112 C 20.4963,7.0000012 20.053817,6.5792976 19.462891,6.1910112 19.170324,5.9987715 18.8157,5.7912095 18.382812,5.6499956 18.167841,5.5798691 17.882194,5.5157439 17.564453,5.51523 Z m -7.9160155,8.89453 c 0.090791,0.03703 0.2334536,0.054 0.3203125,0.101563 0.524244,0.28708 1.023186,0.626716 1.40625,0.929687 0.383064,0.302971 0.669178,0.626004 0.666016,0.621094 0.09685,0.150323 0.09196,0.167958 0.103515,0.203125 -0.0024,-0.02207 -0.09159,0.09317 -0.386718,0.171875 -0.349586,0.09322 -0.868346,0.107844 -1.25586,0.01953 C 10.147979,16.375968 9.9368587,16.214396 9.8457031,16.110932 9.7581675,15.947287 9.7254759,15.06942 9.6484375,14.40976 Z"
     id="path2033"
     sodipodi:nodetypes="scscssccscccccccccccccscccscscsssssccccccccsssccscccccc" />
  <path
     style="color:#000000;fill:#1E1E2E;stroke-linecap:round;stroke-linejoin:round;-inkscape-stroke:none;fill-opacity:1"
     d="m 17.064453,5.015625 c -0.317741,-5.139e-4 -0.668203,0.063904 -1.009766,0.2539062 -0.81678,0.4543214 -1.285331,1.2412877 -1.345703,2.0488282 -0.04253,0.5688492 0.09417,0.9629315 0.189454,1.2988281 C 14.690844,8.4357626 14.526375,8.3034695 14.214844,8 13.722645,7.5205382 13.098535,6.9258695 12.240234,6.5 11.363655,6.0650613 10.248543,5.8652442 9.0488281,6.1386719 c -0.019664,0.00397 -0.039204,0.00853 -0.058594,0.013672 C 7.8532976,6.4603886 7.2199109,7.4068457 6.8203125,8.2753906 6.5751363,8.808292 6.4805969,9.4118764 6.3515625,10 H 4.5 4 c -0.5522619,5.5e-5 -0.9999448,0.447738 -1,1 v 1 c 5.52e-5,0.552262 0.4477381,0.999945 1,1 H 4.5 6 c -0.051782,1.513275 0.044494,3.032209 0.8007812,4.255859 0.0013,0.0013 0.0026,0.0026 0.00391,0.0039 l 0.00977,0.01563 0.00977,0.01563 c 0.012329,0.01998 0.025358,0.03953 0.039063,0.05859 0.6324468,0.871217 1.5699769,1.325985 2.4707032,1.53125 0.8980036,0.204645 1.8322016,0.187717 2.6972656,-0.04297 0.861851,-0.229824 1.777229,-0.70881 2.296875,-1.640625 C 14.880339,16.20705 14.724692,14.967294 14.0625,13.939453 13.384661,12.887299 12.228141,12.102597 10.910156,11.380859 10.369515,11.0848 9.8018366,10.909315 9.2402344,10.705078 9.3395395,10.277197 9.427222,9.7851228 9.5449219,9.5292969 9.7490708,9.0855701 10.032468,8.9996506 9.7734375,9.0722656 10.283292,8.9682188 10.553588,9.0144702 10.90625,9.1894531 c 0.355114,0.1761997 0.774077,0.5296747 1.216797,0.9609379 0.437919,0.426586 0.917915,0.965639 1.617187,1.386718 0.775624,0.467053 1.874148,0.648313 2.886719,0.138672 0.833046,-0.419283 1.344846,-1.187516 1.419922,-2.0156247 0.03981,-0.4390911 -0.06475,-0.6926505 -0.138672,-0.9980469 0.0026,0.00233 0.04102,0.033203 0.04102,0.033203 l 0.365234,0.3417969 c 0.403355,0.3777304 1.036609,0.3567386 1.414063,-0.046875 l 0.683589,-0.7304687 c 0.37773,-0.4033547 0.356738,-1.0366087 -0.04687,-1.4140625 L 20.003906,6.5078125 20,6.5039062 C 19.9963,6.5003962 19.553817,6.0796926 18.962891,5.6914062 18.670324,5.4991665 18.3157,5.2916045 17.882812,5.1503906 17.667841,5.0802641 17.382194,5.0161389 17.064453,5.015625 Z m -7.9160155,8.894531 c 0.090791,0.03703 0.2334536,0.054 0.3203125,0.101563 0.5242442,0.28708 1.023186,0.626716 1.40625,0.929687 0.383064,0.302971 0.669178,0.626004 0.666016,0.621094 0.09685,0.150323 0.09196,0.167958 0.103515,0.203125 -0.0024,-0.02207 -0.09159,0.09317 -0.386718,0.171875 -0.349586,0.09322 -0.868346,0.107844 -1.25586,0.01953 C 9.6479787,15.876364 9.4368587,15.714792 9.3457031,15.611328 9.2581675,15.447683 9.2254759,14.569816 9.1484375,13.910156 Z"
     id="path1798"
     sodipodi:nodetypes="scscssccscccccccccccccscccscscsssssccccccccsssccscccccc" />
  <path
     id="path8"
     style="fill:none;stroke:#232627;stroke-width:1;stroke-linecap:square;stroke-miterlimit:4;stroke-dasharray:none;stroke-opacity:1"
     d="m 4.5,11.5 h 2.0284545 c 2.1644459,0.04718 5.5064635,2.061059 6.2734755,3.25164 1.789553,2.777713 -3.3009879,3.678458 -4.7250818,1.716719 C 6.7460307,14.315134 7.4657944,8.119489 9.3832184,7.6 12.85275,6.8092571 13.817388,11.412075 15.953387,10.337 17.603275,9.5065872 15.169854,7.477814 16.783946,6.58 17.475744,6.1951715 18.974998,7.6 18.974998,7.6"
     sodipodi:nodetypes="cccccscc" />
  <path
     style="fill:#B4BEFE;stroke-width:0.0331785"
     d="M 10.218978,17.99805 C 9.2895879,17.930005 8.3901835,17.545347 7.8764993,16.996217 7.445435,16.535408 7.1461938,15.7096 6.9776163,14.515594 6.9319561,14.19219 6.9189138,13.873285 6.9183895,13.067406 l -6.722e-4,-1.033457 -0.1456394,-0.01996 c -0.080102,-0.01098 -0.7333033,-0.01996 -1.4515594,-0.01996 h -1.30592 v -0.5003 -0.5003 l 1.5262251,0.01092 c 0.8394238,0.006 1.5262187,0.0052 1.526211,-0.0019 -7.7e-6,-0.007 0.038466,-0.201125 0.085498,-0.431321 C 7.4370325,9.17867 7.880646,8.1815398 8.477644,7.5926463 8.8870129,7.1888351 9.3305219,7.0322387 10.099363,7.0200418 c 0.998434,-0.015839 1.836268,0.3231809 2.790484,1.1291382 0.145986,0.1233032 0.55657,0.502307 0.912409,0.8422305 0.801853,0.765988 1.077424,0.9601403 1.420438,1.0007653 0.302014,0.035769 0.67209,-0.1336725 0.790014,-0.361713 0.0778,-0.1504436 0.04753,-0.3984439 -0.136694,-1.1201761 -0.237091,-0.928829 -0.221571,-1.3568309 0.06558,-1.808414 0.137909,-0.2168817 0.405148,-0.4546828 0.641283,-0.5706415 0.168286,-0.082641 0.223192,-0.092462 0.504054,-0.090165 0.240472,0.00197 0.366322,0.020795 0.530856,0.079422 0.534905,0.1905992 1.121143,0.5881384 1.830623,1.2413815 l 0.232334,0.2139182 -0.320938,0.3428299 C 19.183291,8.1071743 19.023669,8.2669337 19.005092,8.2736389 18.986512,8.2803489 18.886994,8.2043539 18.783934,8.1047714 18.198673,7.5392591 17.470945,7.0631271 17.133782,7.025124 17.01178,7.011373 16.984454,7.022824 16.864444,7.1379563 c -0.10357,0.099363 -0.138473,0.1617218 -0.155437,0.277702 -0.02453,0.1676883 0.03856,0.5481144 0.161222,0.9722347 0.29543,1.0214738 0.227767,1.5929273 -0.244504,2.064985 -0.208857,0.208763 -0.660122,0.448712 -0.958808,0.509823 C 15.121155,11.074364 14.5686,10.917261 13.982424,10.483762 13.721545,10.290836 13.516566,10.105281 12.755689,9.373279 11.700848,8.3584682 11.040379,8.0135505 10.152621,8.0138754 9.4403447,8.0141375 9.1938709,8.1529187 8.8116221,8.7689552 8.5731184,9.1533302 8.2715448,10.031706 8.131081,10.751126 c -0.039053,0.20002 -0.077941,0.396081 -0.086417,0.435693 -0.01269,0.0593 0.00363,0.07601 0.092391,0.09464 0.059291,0.01244 0.3093616,0.09796 0.555712,0.190053 1.555655,0.581543 3.153795,1.547834 4.052235,2.45012 1.382658,1.388577 1.195789,3.021333 -0.429236,3.750432 -0.571671,0.256492 -1.363848,0.379653 -2.096788,0.325991 z m 1.177837,-1.06737 c 0.349991,-0.07884 0.772033,-0.270256 0.968449,-0.43923 0.07644,-0.06576 0.179196,-0.201754 0.228341,-0.302203 0.0782,-0.159833 0.08732,-0.211094 0.07304,-0.410591 -0.01747,-0.244149 -0.134769,-0.540735 -0.318845,-0.80618 -0.557952,-0.804587 -2.5375256,-2.064006 -4.0863574,-2.59977 l -0.3151958,-0.10903 -0.026963,0.138898 c -0.027828,0.143353 -0.00687,1.628547 0.026311,1.864181 0.1317027,0.935401 0.3375501,1.632401 0.5816008,1.969303 0.1966819,0.271511 0.7264931,0.570032 1.2272804,0.691507 0.467888,0.113494 1.146637,0.114782 1.642336,0.0031 z"
     id="path21374" />
</svg>

<svg xmlns="http://www.w3.org/2000/svg" width="24" height="24" version="1">
    <defs>
        <filter id="a" width="1.042" height="1.053" x="-.021" y="-.027" style="color-interpolation-filters:sRGB">
            <feGaussianBlur stdDeviation=".155"/>
        </filter>
    </defs>
    <path d="M17.564 5.515c-.317 0-.668.064-1.01.254-.816.454-1.285 1.241-1.345 2.049-.043.569.094.963.19 1.299-.208-.182-.373-.314-.684-.617-.492-.48-1.116-1.075-1.975-1.5a4.77 4.77 0 0 0-3.25-.348c-1.137.308-1.77 1.254-2.17 2.123-.245.533-.34 1.136-.468 1.725H4.5a1 1 0 0 0-1 1v1a1 1 0 0 0 1 1h2c-.052 1.513.044 3.032.8 4.255l.005.004.01.016.01.016q.018.03.038.058c.633.871 1.57 1.326 2.471 1.531a5.65 5.65 0 0 0 2.697-.043c.862-.23 1.777-.708 2.297-1.64.552-.99.397-2.23-.266-3.258-.677-1.052-1.834-1.837-3.152-2.559-.54-.296-1.108-.471-1.67-.675.1-.428.187-.92.305-1.176.204-.444.487-.53.228-.457.51-.104.78-.058 1.133.117.355.176.774.53 1.217.961.438.427.918.966 1.617 1.387.776.467 1.874.648 2.887.138.833-.419 1.345-1.187 1.42-2.015.04-.44-.065-.693-.139-.998l.041.033.365.342a1 1 0 0 0 1.415-.047l.683-.73a1 1 0 0 0-.047-1.415l-.361-.338-.004-.003a8 8 0 0 0-1.037-.813 4.5 4.5 0 0 0-1.08-.541 2.7 2.7 0 0 0-.819-.135M9.648 14.41c.091.037.234.054.32.101a10.4 10.4 0 0 1 1.407.93c.383.303.67.626.666.621.097.15.092.168.104.203-.003-.022-.092.093-.387.172a2.9 2.9 0 0 1-1.256.02c-.354-.081-.565-.243-.656-.346-.088-.164-.12-1.042-.198-1.701" style="color:#000;opacity:.1;fill:#000;fill-opacity:1;stroke-linecap:round;stroke-linejoin:round;-inkscape-stroke:none;filter:url(#a)"/>
    <path d="M17.064 5.016c-.317 0-.668.064-1.01.254-.816.454-1.285 1.24-1.345 2.048-.043.57.094.963.19 1.3-.208-.182-.373-.315-.684-.618-.492-.48-1.116-1.074-1.975-1.5a4.77 4.77 0 0 0-3.25-.348c-1.137.308-1.77 1.255-2.17 2.123-.245.533-.34 1.137-.468 1.725H4a1 1 0 0 0-1 1v1a1 1 0 0 0 1 1h2c-.052 1.513.044 3.032.8 4.256l.005.004.01.015.01.016.038.059c.633.87 1.57 1.326 2.471 1.53a5.65 5.65 0 0 0 2.697-.042c.862-.23 1.777-.709 2.297-1.64.552-.991.397-2.23-.265-3.259-.678-1.052-1.835-1.836-3.153-2.558-.54-.296-1.108-.472-1.67-.676.1-.428.187-.92.305-1.176.204-.443.487-.53.228-.457.51-.104.78-.058 1.133.117.355.177.774.53 1.217.961.438.427.918.966 1.617 1.387.776.467 1.874.648 2.887.139.833-.42 1.345-1.188 1.42-2.016.04-.439-.065-.692-.139-.998l.041.033.365.342a1 1 0 0 0 1.415-.047l.683-.73a1 1 0 0 0-.047-1.414l-.361-.338L20 6.504a8 8 0 0 0-1.037-.813 4.5 4.5 0 0 0-1.08-.54 2.7 2.7 0 0 0-.819-.135M9.148 13.91c.091.037.234.054.32.102a10.4 10.4 0 0 1 1.407.93c.383.302.67.625.666.62.097.15.092.168.104.204-.003-.022-.092.093-.387.172a2.9 2.9 0 0 1-1.256.019c-.354-.08-.565-.242-.656-.346-.088-.163-.12-1.041-.198-1.7" style="color:#000;fill:#1e1e2e;stroke-linecap:round;stroke-linejoin:round;-inkscape-stroke:none;fill-opacity:1"/>
    <path d="M4.5 11.5h2.028c2.165.047 5.507 2.061 6.274 3.252 1.79 2.777-3.301 3.678-4.725 1.716C6.746 14.315 7.466 8.12 9.383 7.6c3.47-.79 4.434 3.812 6.57 2.737 1.65-.83-.783-2.86.83-3.757.693-.385 2.192 1.02 2.192 1.02" style="fill:none;stroke:#232627;stroke-width:1;stroke-linecap:square;stroke-miterlimit:4;stroke-dasharray:none;stroke-opacity:1"/>
    <path d="M10.219 17.998c-.93-.068-1.829-.453-2.343-1.002q-.645-.69-.898-2.48c-.046-.324-.06-.643-.06-1.449v-1.033l-.146-.02c-.08-.011-.733-.02-1.451-.02H4.015v-1l1.526.01c.84.006 1.526.006 1.526-.002 0-.007.039-.2.086-.43.284-1.393.728-2.39 1.325-2.98.409-.403.853-.56 1.621-.572.999-.016 1.837.323 2.79 1.13.147.122.557.501.913.841.802.766 1.078.96 1.42 1.001.303.036.673-.133.79-.362.079-.15.048-.398-.136-1.12-.237-.929-.222-1.357.066-1.808.138-.217.405-.455.64-.57.17-.083.224-.093.505-.09.24.001.366.02.53.078.536.191 1.122.589 1.831 1.242l.233.214-.321.343a4 4 0 0 1-.355.355c-.018.006-.118-.07-.221-.17-.585-.565-1.313-1.04-1.65-1.079-.122-.014-.15-.002-.27.113-.103.1-.138.162-.155.278-.025.167.039.548.161.972.296 1.021.228 1.593-.244 2.065-.21.209-.66.449-.96.51-.545.111-1.097-.046-1.684-.48-.26-.192-.465-.378-1.226-1.11-1.055-1.015-1.716-1.36-2.603-1.36-.713.001-.96.14-1.341.756-.239.384-.54 1.263-.68 1.982l-.087.436c-.013.06.003.076.092.094.06.013.31.098.556.19 1.555.582 3.154 1.548 4.052 2.45 1.383 1.39 1.196 3.022-.43 3.751-.57.257-1.363.38-2.096.326m1.178-1.067c.35-.08.772-.27.968-.44.077-.065.18-.201.229-.302.078-.16.087-.21.073-.41-.018-.244-.135-.541-.32-.807-.557-.804-2.537-2.064-4.086-2.6l-.315-.108-.027.139c-.028.143-.007 1.628.027 1.864.131.935.337 1.632.581 1.97.197.27.727.57 1.227.69.468.114 1.147.115 1.643.004" style="fill:#b4befe;stroke-width:.0331785"/>
</svg>
